public/images/icon/double-quote.svg

<svg fill="none" height="44" viewBox="0 0 60 44" width="60" xmlns="http://www.w3.org/2000/svg"><path d="m14.964 43.3735c-4.1247 0-7.67383-1.5957-10.64745-4.787-2.8777-3.2881-4.31655-7.9784-4.31655-14.071 0-7.7367 1.96643-13.7326 5.89928-17.98771 4.02878-4.35186 9.68822-6.52779 16.97842-6.52779 1.9185 0 3.8762.14506 5.3151.43518v7.9784c-2.2063-.29012-4.2599-.43518-5.6029-.43518-4.0287 0-7.1463 1.2572-9.3525 3.7716-2.2062 2.2243-3.45323 4.9805-3.741 8.2685 1.3429-1.644 3.4532-2.466 6.3309-2.466 3.5492 0 6.4749 1.2572 8.777 3.7716 2.3022 2.4177 3.4533 5.464 3.4533 9.1389 0 3.7716-1.247 6.8663-3.7411 9.2839-2.398 2.4177-5.5155 3.6266-9.3525 3.6266zm31.9425 0c-4.1247 0-7.6739-1.5957-10.6475-4.787-2.8777-3.2881-4.3166-7.9784-4.3166-14.071 0-7.7367 1.9665-13.7326 5.8993-17.98771 4.0288-4.35186 9.6883-6.52779 16.9784-6.52779 1.9185 0 3.7411.14506 5.1799.43518v7.9784c-2.2062-.29012-4.1247-.43518-5.4676-.43518-4.0288 0-7.1463 1.2572-9.3525 3.7716-2.2063 2.2243-3.4533 4.9805-3.741 8.2685 1.3429-1.644 3.4532-2.466 6.3309-2.466 3.5491 0 6.4748 1.2572 8.777 3.7716 2.3021 2.4177 3.4532 5.464 3.4532 9.1389 0 3.7716-1.247 6.8663-3.741 9.2839-2.3981 2.4177-5.5156 3.6266-9.3525 3.6266z" fill="#f3f1fd"/></svg>

<svg width="60" height="44" viewBox="0 0 60 44" fill="none" xmlns="http://www.w3.org/2000/svg">
<path d="M14.964 43.3735C10.8393 43.3735 7.29017 41.7778 4.31655 38.5865C1.43885 35.2984 0 30.6081 0 24.5155C0 16.7788 1.96643 10.7829 5.89928 6.52779C9.92806 2.17593 15.5875 0 22.8777 0C24.7962 0 26.7539 0.14506 28.1928 0.43518V8.41358C25.9865 8.12346 23.9329 7.9784 22.5899 7.9784C18.5612 7.9784 15.4436 9.2356 13.2374 11.75C11.0312 13.9743 9.78417 16.7305 9.4964 20.0185C10.8393 18.3745 12.9496 17.5525 15.8273 17.5525C19.3765 17.5525 22.3022 18.8097 24.6043 21.3241C26.9065 23.7418 28.0576 26.7881 28.0576 30.463C28.0576 34.2346 26.8106 37.3293 24.3165 39.7469C21.9185 42.1646 18.801 43.3735 14.964 43.3735ZM46.9065 43.3735C42.7818 43.3735 39.2326 41.7778 36.259 38.5865C33.3813 35.2984 31.9424 30.6081 31.9424 24.5155C31.9424 16.7788 33.9089 10.7829 37.8417 6.52779C41.8705 2.17593 47.53 0 54.8201 0C56.7386 0 58.5612 0.14506 60 0.43518V8.41358C57.7938 8.12346 55.8753 7.9784 54.5324 7.9784C50.5036 7.9784 47.3861 9.2356 45.1799 11.75C42.9736 13.9743 41.7266 16.7305 41.4389 20.0185C42.7818 18.3745 44.8921 17.5525 47.7698 17.5525C51.3189 17.5525 54.2446 18.8097 56.5468 21.3241C58.8489 23.7418 60 26.7881 60 30.463C60 34.2346 58.753 37.3293 56.259 39.7469C53.8609 42.1646 50.7434 43.3735 46.9065 43.3735Z" fill="#F3F1FD"/>
</svg>
